; Postprocessed by [ArcWelder](https://github.com/FormerLurker/ArcWelderLib)
; Copyright(C) 2021 - Brad Hochgesang
; Version: 1.2.0, Branch: HEAD, BuildDate: 2021-11-21T20:25:43Z
; resolution=0.05mm
; path_tolerance=5.0%
; max_radius=9999.00mm
; default_xyz_precision=3
; default_e_precision=5
; extrusion_rate_variance_percent=5.0%

; generated by AnycubicSlicer 1.2.2 on 2024-01-03 at 18:05:53 UTC




; 

; external perimeters extrusion width = 0.45mm
; perimeters extrusion width = 0.45mm
; infill extrusion width = 0.45mm
; solid infill extrusion width = 0.45mm
; top infill extrusion width = 0.42mm
; support material extrusion width = 0.45mm
; first layer extrusion width = 0.50mm

;TYPE:Custom
G90 ; use absolute coordinates
M83 ; extruder relative mode
M140 S70 ; set bed temp
M190 S70 ; wait for bed temp
M104 S210 ; set extruder temp
M109 S210 ; wait for extruder temp
G28                                        ; move X/Y/Z to min endstops
G1 Z0.28                                   ; lift nozzle a bit 
G92 E0 
G1 Y3 F2400                                    ; zero the extruded length 
G1 X180  E40 F500                       ; Extrude 25mm of filament in a 5cm line. 
G92 E0                                     ; zero the extruded length again 
G1 E-0.2 F3000                                ; Retract a little 
G1 X181 F4000                              ; Quickly wipe away from the filament line
M117
G21 ; set units to millimeters
G90 ; use absolute coordinates
M82 ; use absolute distances for extrusion
G92 E0
M107
;LAYER_CHANGE
;Z:0.24
;HEIGHT:0.24
; BEFORE_LAYER_CHANGE 0 @ 0.24mm
G1 Z.24 F18000
; AFTER_LAYER_CHANGE 0 @ 0.24mm
G1 E-2.5 F4800
G92 E0
G1 X159.805 Y160.824 F18000
G1 E2.5 F4800
M204 S5000
;TYPE:Skirt/Brim
;WIDTH:0.5
G1 F3600
G1 X160.289 Y160.497 E2.52614
G1 X160.652 Y160.347 E2.54372
G1 X161.012 Y160.256 E2.56034
G1 X193.408 Y160.249 E4.0101
G3 X195.639 Y162.624 I-0.446 J2.655 E4.16674
G1 X195.616 Y163.989 E4.22783
G3 X195.048 Y165.196 I-2.432 J-0.408 E4.28817
G1 X194.495 Y165.716 E4.32214
G3 X193.460 Y166.144 I-1.495 J-2.151 E4.37260
G1 X187.976 Y166.166 E4.61802
G3 X186.460 Y167.044 I-1.945 J-1.610 E4.69797
G1 X180.976 Y167.066 E4.94339
G3 X179.460 Y167.944 I-1.945 J-1.610 E5.02334
G1 X173.97 Y167.966 E5.26903
G3 X172.248 Y168.867 I-1.919 J-1.572 E5.35828
G1 X166.977 Y168.867 E5.59416
G3 X165.255 Y169.767 I-1.932 J-1.599 E5.68328
G1 X161.223 Y169.767 E5.86372
G3 X159.978 Y169.316 I0.217 J-2.542 E5.92361
G3 X159.097 Y168.311 I1.787 J-2.455 E5.98378
G3 X158.856 Y167.588 I2.368 J-1.191 E6.01798
G1 X158.833 Y162.627 E6.23999
G3 X159.763 Y160.867 I2.524 J0.208 E6.33139
M204 S10000
G1 X160.088 Y161.176 F18000
M204 S5000
G1 F3600
G3 X161.093 Y160.698 I1.346 J1.534 E6.38177
G1 X193.379 Y160.698 E7.8266
G3 X195.190 Y162.642 I-0.419 J2.206 E7.95384
G1 X195.174 Y163.907 E8.01045
G3 X193.379 Y165.702 I-2.229 J-0.434 E8.13103
G1 X187.794 Y165.718 E8.38097
G1 X187.277 Y166.218 E8.41316
G3 X186.379 Y166.602 I-1.260 J-1.704 E8.45722
G1 X180.794 Y166.618 E8.70716
G1 X180.277 Y167.118 E8.73935
G3 X179.379 Y167.502 I-1.260 J-1.704 E8.78341
G1 X173.786 Y167.518 E9.0337
G3 X172.985 Y168.199 I-1.961 J-1.495 E9.08100
G3 X172.230 Y168.418 I-0.890 J-1.656 E9.11636
G1 X166.792 Y168.418 E9.35972
G3 X165.232 Y169.318 I-1.846 J-1.397 E9.44248
G1 X161.243 Y169.318 E9.62099
G3 X160.231 Y168.945 I0.196 J-2.092 E9.66977
G3 X159.298 Y167.507 I1.348 J-1.896 E9.74830
G1 X159.282 Y162.644 E9.96593
G3 X160.046 Y161.220 I2.050 J0.183 E10.04015
M204 S10000
G1 X160.368 Y161.531 F18000
M204 S5000
G1 F3600
G3 X161.170 Y161.140 I1.063 J1.163 E10.08060
G1 X193.302 Y161.14 E11.51854
G3 X194.742 Y162.662 I-0.341 J1.765 E11.61867
G1 X194.732 Y163.829 E11.6709
G3 X193.302 Y165.260 I-1.783 J-0.352 E11.76692
G1 X187.549 Y165.27 E12.02437
G3 X186.302 Y166.160 I-1.736 J-1.114 E12.09488
G1 X180.549 Y166.17 E12.35233
G3 X179.302 Y167.060 I-1.736 J-1.114 E12.42284
G1 X173.54 Y167.07 E12.6807
G3 X172.212 Y167.970 I-1.601 J-0.933 E12.75501
G1 X166.549 Y167.97 E13.00844
G3 X165.210 Y168.870 I-1.591 J-0.921 E13.08308
G1 X161.262 Y168.87 E13.25976
G3 X159.740 Y167.430 I0.250 J-1.789 E13.35988
G1 X159.73 Y162.66 E13.57334
G3 X160.326 Y161.574 I1.582 J0.162 E13.63019
M204 S10000
G1 X160.645 Y161.888 F18000
M204 S5000
G1 F3600
G3 X161.243 Y161.583 I0.744 J0.719 E13.66076
G1 X193.229 Y161.583 E15.09217
G3 X194.293 Y162.683 I-0.265 J1.321 E15.16501
G1 X194.289 Y163.757 E15.21307
G3 X193.229 Y164.817 I-1.316 J-0.256 E15.28414
G1 X187.25 Y164.821 E15.55171
G3 X186.229 Y165.717 I-1.281 J-0.430 E15.61526
G1 X180.25 Y165.721 E15.88283
G3 X179.229 Y166.617 I-1.281 J-0.430 E15.94638
G1 X173.262 Y166.621 E16.21341
G3 X172.191 Y167.521 I-1.355 J-0.525 E16.27881
G1 X166.25 Y167.521 E16.54468
G3 X165.188 Y168.421 I-1.269 J-0.421 E16.61006
G1 X161.281 Y168.421 E16.7849
G3 X160.183 Y167.357 I0.224 J-1.330 E16.85766
G1 X160.179 Y162.681 E17.06692
G3 X160.603 Y161.931 I1.107 J0.131 E17.10643
M204 S10000
G1 X160.919 Y162.247 F18000
M204 S5000
G1 F3600
G3 X161.306 Y162.027 I0.470 J0.376 E17.12670
G1 X193.166 Y162.027 E18.55247
G3 X193.836 Y162.663 I-0.203 J0.885 E18.59561
G1 X193.845 Y163.694 E18.64175
G3 X193.166 Y164.373 I-0.876 J-0.197 E18.68681
G1 X186.878 Y164.373 E18.9682
G3 X186.166 Y165.273 I-0.927 J-0.002 E19.02331
G1 X179.878 Y165.273 E19.3047
G3 X179.166 Y166.173 I-0.927 J-0.002 E19.35981
G1 X172.878 Y166.173 E19.6412
G3 X172.166 Y167.073 I-0.927 J-0.002 E19.69631
G1 X165.878 Y167.073 E19.9777
G3 X165.166 Y167.973 I-0.927 J-0.002 E20.03281
G1 X161.306 Y167.973 E20.20555
G3 X160.627 Y167.294 I0.197 J-0.876 E20.25061
G1 X160.627 Y162.706 E20.45593
G3 X160.877 Y162.289 I0.636 J0.098 E20.47810
M204 S10000
G1 X161.194 Y162.606 F18000
M204 S5000
G1 F3600
G3 X161.373 Y162.476 I0.245 J0.149 E20.48819
G1 X193.099 Y162.476 E21.90796
G3 X193.396 Y162.773 I-0.124 J0.421 E21.92737
G1 X193.396 Y163.627 E21.96559
G3 X193.099 Y163.924 I-0.421 J-0.124 E21.98500
G1 X186.396 Y163.924 E22.28497
G1 X186.396 Y164.527 E22.31195
G3 X186.099 Y164.824 I-0.421 J-0.124 E22.33136
G1 X179.396 Y164.824 E22.63133
G1 X179.396 Y165.427 E22.65831
G3 X179.099 Y165.724 I-0.421 J-0.124 E22.67772
G1 X172.396 Y165.724 E22.97769
G1 X172.396 Y166.327 E23.00467
G3 X172.099 Y166.624 I-0.421 J-0.124 E23.02408
G1 X165.396 Y166.624 E23.32405
G1 X165.396 Y167.227 E23.35103
G3 X165.099 Y167.524 I-0.421 J-0.124 E23.37044
G1 X161.373 Y167.524 E23.53718
G3 X161.076 Y167.227 I0.124 J-0.421 E23.55659
G1 X161.076 Y162.773 E23.75591
G3 X161.151 Y162.649 I0.186 J0.028 E23.76251
M204 S10000
G1 E21.26251 F4800
G92 E0
G1 X153.418 Y159.139 F18000
G1 E2.5 F4800
M204 S5000
;TYPE:Support material
G1 F3600
G1 X165.046 Y159.139 E3.02037
G1 X165.046 Y159.45 E3.03429
G1 X161.464 Y159.45 E3.19459
G1 X159.642 Y159.982 E3.27953
G1 X158.467 Y161.238 E3.3565
G1 X158.05 Y162.869 E3.43184
G1 X158.05 Y167.136 E3.62279
G1 X158.582 Y168.958 E3.70773
G1 X159.838 Y170.133 E3.7847
G1 X161.469 Y170.55 E3.86004
G1 X165.008 Y170.55 E4.01841
G1 X166.83 Y170.018 E4.10335
G1 X167.174 Y169.65 E4.12589
G1 X172.008 Y169.65 E4.34222
G1 X173.83 Y169.118 E4.42716
G1 X174.174 Y168.75 E4.4497
G1 X179.008 Y168.75 E4.66603
G1 X180.83 Y168.218 E4.75097
G1 X181.174 Y167.85 E4.77351
G1 X186.008 Y167.85 E4.98984
G1 X187.83 Y167.318 E5.07478
G1 X188.174 Y166.95 E5.09732
G1 X191.21 Y166.95 E5.23318
G1 X191.21 Y167.953 E5.27807
G1 X185.396 Y167.953 E5.53825
G1 X185.396 Y170.861 E5.66839
G1 X153.418 Y170.861 E7.09944
G1 X153.418 Y173.768 E7.22953
G1 X132.976 Y173.768 E8.14433
G1 X132.976 Y156.232 E8.92908
G1 X153.418 Y156.232 E9.84388
G1 X153.418 Y159.072 E9.97097
M204 S10000
G1 X159.518 Y170.659 F18000
M204 S5000
G1 F3600
G1 X159.518 Y170.386 E9.98319
G1 X159.02 Y169.92 E10.01371
G1 X159.02 Y170.457 E10.03774
G1 X158.522 Y170.457 E10.06003
G1 X158.522 Y169.454 E10.10492
G1 X158.226 Y169.177 E10.12306
G1 X158.023 Y168.485 E10.15533
G1 X158.023 Y170.457 E10.24358
G1 X157.525 Y170.457 E10.26587
G1 X157.525 Y159.543 E10.75428
G1 X158.023 Y159.543 E10.77657
G1 X158.023 Y161.345 E10.85721
G1 X158.102 Y161.038 E10.8714
G1 X158.522 Y160.589 E10.89891
G1 X158.522 Y159.543 E10.94572
G1 X159.02 Y159.543 E10.96801
G1 X159.02 Y160.056 E10.99097
G1 X159.423 Y159.626 E11.01734
G1 X159.518 Y159.598 E11.02177
G1 X159.518 Y159.341 E11.03327
M204 S10000
G1 E8.53327 F4800
G92 E0
G1 X157.027 Y170.659 F18000
G1 E2.5 F4800
M204 S5000
G1 F3600
G1 X157.027 Y159.543 E2.99745
G1 X156.528 Y159.543 E3.01978
G1 X156.528 Y170.457 E3.50819
G1 X156.03 Y170.457 E3.53048
G1 X156.03 Y159.543 E4.01889
G1 X155.532 Y159.543 E4.04118
G1 X155.532 Y170.457 E4.52959
G1 X155.033 Y170.457 E4.55192
G1 X155.033 Y159.543 E5.04033
G1 X154.535 Y159.543 E5.06262
G1 X154.535 Y170.457 E5.55103
G1 X154.037 Y170.457 E5.57332
G1 X154.037 Y159.543 E6.06173
G1 X153.538 Y159.543 E6.08406
G1 X153.538 Y170.457 E6.57247
G1 X153.04 Y170.457 E6.59476
G1 X153.04 Y159.543 E7.08317
G1 X153.014 Y159.543 E7.08433
G1 X153.014 Y156.636 E7.21442
G1 X152.542 Y156.636 E7.23554
G1 X152.542 Y173.364 E7.98414
G1 X152.043 Y173.364 E8.00647
G1 X152.043 Y156.636 E8.75507
G1 X151.545 Y156.636 E8.77736
G1 X151.545 Y173.364 E9.52596
G1 X151.047 Y173.364 E9.54825
G1 X151.047 Y156.636 E10.29685
G1 X150.548 Y156.636 E10.31918
G1 X150.548 Y173.364 E11.06778
G1 X150.05 Y173.364 E11.09007
G1 X150.05 Y156.636 E11.83867
G1 X149.552 Y156.636 E11.86096
G1 X149.552 Y173.364 E12.60956
G1 X149.054 Y173.364 E12.63185
G1 X149.054 Y156.636 E13.38045
G1 X148.555 Y156.636 E13.40278
G1 X148.555 Y173.364 E14.15138
G1 X148.057 Y173.364 E14.17367
G1 X148.057 Y156.636 E14.92227
G1 X147.559 Y156.636 E14.94456
G1 X147.559 Y173.364 E15.69316
G1 X147.06 Y173.364 E15.71549
G1 X147.06 Y156.636 E16.46409
G1 X146.562 Y156.636 E16.48638
G1 X146.562 Y173.364 E17.23498
G1 X146.064 Y173.364 E17.25727
G1 X146.064 Y156.636 E18.00587
G1 X145.565 Y156.636 E18.0282
G1 X145.565 Y173.364 E18.7768
G1 X145.067 Y173.364 E18.79909
G1 X145.067 Y156.636 E19.54769
G1 X144.569 Y156.636 E19.56998
G1 X144.569 Y173.364 E20.31858
G1 X144.07 Y173.364 E20.34091
G1 X144.07 Y156.636 E21.08951
G1 X143.572 Y156.636 E21.1118
G1 X143.572 Y173.364 E21.8604
G1 X143.074 Y173.364 E21.88269
G1 X143.074 Y156.636 E22.63129
G1 X142.575 Y156.636 E22.65362
G1 X142.575 Y173.364 E23.40222
G1 X142.077 Y173.364 E23.42451
G1 X142.077 Y156.636 E24.17311
G1 X141.579 Y156.636 E24.1954
G1 X141.579 Y173.364 E24.944
G1 X141.08 Y173.364 E24.96633
G1 X141.08 Y156.636 E25.71493
G1 X140.582 Y156.636 E25.73722
G1 X140.582 Y173.364 E26.48582
G1 X140.084 Y173.364 E26.50811
G1 X140.084 Y156.636 E27.25671
G1 X139.585 Y156.636 E27.27904
G1 X139.585 Y173.364 E28.02764
G1 X139.087 Y173.364 E28.04993
G1 X139.087 Y156.636 E28.79853
G1 X138.589 Y156.636 E28.82082
G1 X138.589 Y173.364 E29.56942
G1 X138.09 Y173.364 E29.59175
G1 X138.09 Y156.636 E30.34035
G1 X137.592 Y156.636 E30.36264
G1 X137.592 Y173.364 E31.11124
G1 X137.094 Y173.364 E31.13353
G1 X137.094 Y156.636 E31.88213
G1 X136.595 Y156.636 E31.90446
G1 X136.595 Y173.364 E32.65306
G1 X136.097 Y173.364 E32.67535
G1 X136.097 Y156.636 E33.42395
G1 X135.599 Y156.636 E33.44624
G1 X135.599 Y173.364 E34.19484
G1 X135.1 Y173.364 E34.21717
G1 X135.1 Y156.636 E34.96577
G1 X134.602 Y156.636 E34.98806
G1 X134.602 Y173.364 E35.73666
G1 X134.104 Y173.364 E35.75895
G1 X134.104 Y156.636 E36.50755
G1 X133.605 Y156.636 E36.52988
G1 X133.605 Y173.566 E37.28752
M204 S10000
G1 E34.78752 F4800
G92 E0
G1 X184.933 Y170.659 F18000
G1 E2.5 F4800
M204 S5000
G1 F3600
G1 X184.933 Y168.254 E2.60763
G1 X184.435 Y168.254 E2.62992
G1 X184.435 Y170.457 E2.72851
G1 X183.936 Y170.457 E2.75084
G1 X183.936 Y168.254 E2.84943
G1 X183.438 Y168.254 E2.87172
G1 X183.438 Y170.457 E2.97031
G1 X182.94 Y170.457 E2.9926
G1 X182.94 Y168.254 E3.09119
G1 X182.441 Y168.254 E3.11352
G1 X182.441 Y170.457 E3.21211
G1 X181.943 Y170.457 E3.2344
G1 X181.943 Y168.254 E3.33299
G1 X181.445 Y168.254 E3.35528
G1 X181.445 Y170.457 E3.45387
G1 X180.946 Y170.457 E3.4762
G1 X180.946 Y168.604 E3.55912
G1 X180.448 Y168.75 E3.58234
G1 X180.448 Y170.457 E3.65873
G1 X179.95 Y170.457 E3.68102
G1 X179.95 Y168.895 E3.75092
G1 X179.452 Y169.041 E3.77414
G1 X179.452 Y170.457 E3.83751
G1 X178.953 Y170.457 E3.85984
G1 X178.953 Y169.154 E3.91815
G1 X178.455 Y169.154 E3.94044
G1 X178.455 Y170.457 E3.99875
G1 X177.957 Y170.457 E4.02104
G1 X177.957 Y169.154 E4.07935
G1 X177.458 Y169.154 E4.10168
G1 X177.458 Y170.457 E4.15999
G1 X176.96 Y170.457 E4.18228
G1 X176.96 Y169.154 E4.24059
G1 X176.462 Y169.154 E4.26288
G1 X176.462 Y170.457 E4.32119
G1 X175.963 Y170.457 E4.34352
G1 X175.963 Y169.154 E4.40183
G1 X175.465 Y169.154 E4.42412
G1 X175.465 Y170.457 E4.48243
G1 X174.967 Y170.457 E4.50472
G1 X174.967 Y169.154 E4.56303
G1 X174.468 Y169.154 E4.58536
G1 X174.468 Y170.457 E4.64367
G1 X173.97 Y170.457 E4.66596
G1 X173.97 Y169.498 E4.70888
G1 X173.472 Y169.643 E4.73209
G1 X173.472 Y170.457 E4.76852
G1 X172.973 Y170.457 E4.79085
G1 X172.973 Y169.789 E4.82074
G1 X172.475 Y169.934 E4.84395
G1 X172.475 Y170.457 E4.86735
G1 X171.977 Y170.457 E4.88964
G1 X171.977 Y170.054 E4.90767
G1 X171.478 Y170.054 E4.93
G1 X171.478 Y170.457 E4.94803
G1 X170.98 Y170.457 E4.97032
G1 X170.98 Y170.054 E4.98835
G1 X170.482 Y170.054 E5.01064
G1 X170.482 Y170.457 E5.02867
G1 X169.983 Y170.457 E5.051
G1 X169.983 Y170.054 E5.06903
G1 X169.485 Y170.054 E5.09132
G1 X169.485 Y170.457 E5.10935
G1 X168.987 Y170.457 E5.13164
G1 X168.987 Y170.054 E5.14967
G1 X168.488 Y170.054 E5.172
G1 X168.488 Y170.457 E5.19003
G1 X167.99 Y170.457 E5.21232
G1 X167.99 Y170.054 E5.23035
G1 X167.492 Y170.054 E5.25264
G1 X167.492 Y170.457 E5.27067
G1 X166.993 Y170.457 E5.293
G1 X166.993 Y170.139 E5.30723
M204 S10000
G1 E2.80723 F4800
G92 E0
G1 X190.415 Y167.752 F18000
G1 E2.5 F4800
M204 S5000
G1 F3600
G1 X190.415 Y167.354 E2.51781
G1 X189.916 Y167.354 E2.54014
G1 X189.916 Y167.55 E2.54891
G1 X189.418 Y167.55 E2.5712
G1 X189.418 Y167.354 E2.57997
G1 X188.92 Y167.354 E2.60226
G1 X188.92 Y167.55 E2.61103
G1 X188.421 Y167.55 E2.63336
G1 X188.421 Y167.152 E2.65117
M204 S10000
G1 E.15117 F4800
G92 E0
G1 X191.21 Y159.45 F18000
G1 E2.5 F4800
M204 S5000
G1 F3600
G1 X173.675 Y159.45 E3.28471
G1 X173.675 Y159.139 E3.29863
G1 X191.21 Y159.139 E4.08334
G1 X191.21 Y159.383 E4.09426
M204 S10000
G1 E1.59426 F4800
G92 E0
G1 X185.898 Y163.202 F18000
G1 E2.5 F4800
M204 S5000
;TYPE:External perimeter
;WIDTH:0.604156
G1 F3600
G1 X185.946 Y163.2 E2.50265
;WIDTH:0.6
G1 X192.672 Y163.2 E2.87076
M204 S10000
G1 E.37076 F4800
G92 E0
G1 X164.946 Y165.95 F18000
G1 E2.5 F4800
M204 S5000
;WIDTH:0.499999
G1 F3600
G2 X164.722 Y166.174 I0.000 J0.224 E2.51533
G1 X164.722 Y166.85 E2.54558
G1 X161.75 Y166.85 E2.67858
G1 X161.75 Y163.15 E2.84416
G1 X185.398 Y163.15 E3.90243
;WIDTH:0.534718
G1 X185.565 Y163.167 E3.91052
;WIDTH:0.569437
G1 X185.732 Y163.185 E3.9192
;WIDTH:0.604156
G1 X185.898 Y163.202 E3.9284
G1 X185.84 Y163.293 E3.93435
;WIDTH:0.569437
G1 X185.781 Y163.384 E3.93995
;WIDTH:0.534718
G1 X185.722 Y163.474 E3.94514
;WIDTH:0.499999
G1 X185.722 Y164.15 E3.97539
G1 X178.946 Y164.15 E4.27862
G1 X178.728 Y164.322 E4.29105
G1 X178.722 Y165.05 E4.32363
G1 X171.907 Y165.053 E4.62861
G2 X171.722 Y165.274 I0.038 J0.220 E4.64225
G1 X171.722 Y165.95 E4.6725
G1 X165.006 Y165.95 E4.97305
M204 S10000
G1 X164.809 Y165.827 F18000
G1 E2.47305 F4800
G92 E0
G1 X178.82 Y163.655 F18000
G1 E2.5 F4800
M204 S5000
;TYPE:Perimeter
;WIDTH:0.613986
G1 F3600
G1 X178.946 Y163.65 E2.50708
;WIDTH:0.60301
G1 X185.222 Y163.65 E2.85245
M204 S10000
G1 E.35245 F4800
G92 E0
G1 X164.852 Y165.523 F18000
G1 E2.5 F4800
M204 S5000
;WIDTH:0.499999
G1 F3600
G2 X164.273 Y166.174 I0.071 J0.646 E2.54257
G1 X164.273 Y166.402 E2.55277
G1 X162.198 Y166.402 E2.64563
G1 X162.198 Y163.598 E2.77111
G1 X177.804 Y163.598 E3.46949
;WIDTH:0.537995
G1 X178.143 Y163.617 E3.48597
;WIDTH:0.575991
G1 X178.482 Y163.636 E3.50374
;WIDTH:0.613986
G1 X178.82 Y163.655 E3.52274
G1 X178.644 Y163.843 E3.53719
;WIDTH:0.575991
G1 X178.468 Y164.03 E3.55063
;WIDTH:0.537995
G1 X178.292 Y164.217 E3.5631
;WIDTH:0.499999
G1 X178.273 Y164.602 E3.58035
G1 X171.946 Y164.602 E3.86349
G1 X171.566 Y164.719 E3.88128
