; Postprocessed by [ArcWelder](https://github.com/FormerLurker/ArcWelderLib)
; Copyright(C) 2021 - Brad Hochgesang
; Version: 1.2.0, Branch: HEAD, BuildDate: 2021-11-21T20:25:43Z
; resolution=0.05mm
; path_tolerance=5.0%
; max_radius=9999.00mm
; default_xyz_precision=3
; default_e_precision=5
; extrusion_rate_variance_percent=5.0%

; generated by AnycubicSlicer 1.2.2 on 2024-01-03 at 18:25:12 UTC




; 

; external perimeters extrusion width = 0.45mm
; perimeters extrusion width = 0.45mm
; infill extrusion width = 0.45mm
; solid infill extrusion width = 0.45mm
; top infill extrusion width = 0.42mm
; support material extrusion width = 0.45mm
; first layer extrusion width = 0.50mm

;TYPE:Custom
G90 ; use absolute coordinates
M83 ; extruder relative mode
M140 S70 ; set bed temp
M190 S70 ; wait for bed temp
M104 S210 ; set extruder temp
M109 S210 ; wait for extruder temp
G28                                        ; move X/Y/Z to min endstops
G1 Z0.28                                   ; lift nozzle a bit 
G92 E0 
G1 Y3 F2400                                    ; zero the extruded length 
G1 X180  E40 F500                       ; Extrude 25mm of filament in a 5cm line. 
G92 E0                                     ; zero the extruded length again 
G1 E-0.2 F3000                                ; Retract a little 
G1 X181 F4000                              ; Quickly wipe away from the filament line
M117
G21 ; set units to millimeters
G90 ; use absolute coordinates
M82 ; use absolute distances for extrusion
G92 E0
M107
;LAYER_CHANGE
;Z:0.24
;HEIGHT:0.24
; BEFORE_LAYER_CHANGE 0 @ 0.24mm
G1 Z.24 F18000
; AFTER_LAYER_CHANGE 0 @ 0.24mm
G1 E-2.5 F4800
G92 E0
G1 X134.972 Y119.186 F18000
G1 E2.5 F4800
M204 S5000
;TYPE:Skirt/Brim
;WIDTH:0.5
G1 F3600
G1 X135.446 Y118.741 E2.5291
G1 X136.464 Y118.267 E2.57935
G1 X137.318 Y118.12 E2.61813
G1 X139.613 Y118.116 E2.72083
G3 X141.877 Y113.661 I4.607 J-0.461 E2.95739
G3 X143.954 Y113.113 I2.125 J3.842 E3.05442
G1 X193.06 Y113.114 E5.25197
G3 X195.224 Y113.712 I-0.047 J4.386 E5.35350
G3 X196.016 Y114.603 I-1.643 J2.258 E5.40716
G1 X196.338 Y115.635 E5.45554
G1 X196.338 Y214.367 E9.8739
G1 X196.067 Y215.294 E9.91712
G1 X196.016 Y215.398 E9.9223
G1 X195.486 Y216.071 E9.96064
G1 X194.83 Y216.514 E9.99606
G3 X193.053 Y216.887 I-1.848 J-4.383 E10.07775
G1 X136.947 Y216.887 E12.58855
G3 X135.005 Y216.428 I0.019 J-4.419 E12.67851
G3 X133.983 Y215.399 I1.331 J-2.344 E12.74401
G1 X133.662 Y214.366 E12.79242
G1 X133.667 Y132.917 E16.43735
G3 X134.359 Y130.996 I3.566 J0.199 E16.52988
G1 X134.361 Y120.66 E16.99243
G1 X134.638 Y119.695 E17.03736
G1 X134.939 Y119.236 E17.06192
M204 S10000
G1 X135.314 Y119.482 F18000
M204 S5000
G1 F3600
G1 X135.722 Y119.096 E17.08705
G1 X136.621 Y118.688 E17.13123
G1 X137.337 Y118.568 E17.16372
G1 X140.062 Y118.564 E17.28567
G3 X140.265 Y116.253 I6.966 J-0.552 E17.39002
G3 X143.962 Y113.562 I3.737 J1.249 E17.60814
G1 X193.051 Y113.562 E19.80493
G3 X194.950 Y114.070 I0.019 J3.734 E19.89378
G3 X195.629 Y114.832 I-1.339 J1.877 E19.93974
G1 X195.89 Y115.669 E19.97898
G1 X195.89 Y214.333 E24.3943
G1 X195.628 Y215.173 E24.43368
G1 X195.201 Y215.722 E24.4648
G1 X194.651 Y216.102 E24.49472
G3 X193.043 Y216.438 I-1.663 J-3.943 E24.56863
G1 X136.958 Y216.438 E27.07849
G3 X135.247 Y216.050 I0.019 J-4.051 E27.15754
G3 X134.376 Y215.175 I1.073 J-1.939 E27.21334
G1 X134.11 Y214.331 E27.25294
G1 X134.116 Y132.933 E30.89559
G3 X134.370 Y131.869 I2.984 J0.150 E30.94475
G1 X134.808 Y131.118 E30.98366
G1 X134.81 Y120.691 E31.45028
G1 X135.032 Y119.913 E31.48649
G1 X135.281 Y119.532 E31.50686
M204 S10000
G1 X135.654 Y119.77 F18000
M204 S5000
G1 F3600
G1 X135.999 Y119.451 E31.52789
G1 X136.725 Y119.125 E31.5635
G1 X137.357 Y119.017 E31.59219
G1 X140.51 Y119.012 E31.73329
G3 X140.556 Y116.939 I11.943 J-0.772 E31.82615
G3 X143.971 Y114.010 I3.445 J0.561 E32.04468
G1 X193.041 Y114.011 E34.24061
G3 X194.682 Y114.431 I0.021 J3.333 E34.31713
G3 X195.242 Y115.062 I-1.047 J1.493 E34.35514
G1 X195.441 Y115.702 E34.38513
G1 X195.441 Y214.297 E38.79736
G1 X195.235 Y214.95 E38.828
G3 X194.062 Y215.835 I-1.555 J-0.841 E38.89559
G3 X193.032 Y215.990 I-1.070 J-3.609 E38.94232
G1 X136.968 Y215.99 E41.45124
G3 X135.443 Y215.645 I0.005 J-3.566 E41.52169
G3 X134.760 Y214.941 I0.876 J-1.533 E41.56603
G1 X134.559 Y214.297 E41.59622
G1 X134.564 Y132.95 E45.23659
G3 X134.786 Y132.038 I2.515 J0.129 E45.27878
G1 X135.256 Y131.242 E45.32015
G1 X135.258 Y120.722 E45.79093
G1 X135.428 Y120.125 E45.81871
G1 X135.622 Y119.821 E45.83485
M204 S10000
G1 X136 Y120.062 F18000
M204 S5000
G1 F3600
G1 X136.269 Y119.81 E45.85135
G3 X137.378 Y119.465 I1.256 J2.083 E45.90370
G1 X140.959 Y119.459 E46.06395
G1 X140.959 Y117.477 E46.15265
G3 X143.979 Y114.459 I3.042 J0.024 E46.36423
G1 X193.031 Y114.459 E48.55936
G3 X194.414 Y114.792 I0.021 J2.952 E48.62354
G3 X194.993 Y115.736 I-0.758 J1.115 E48.67443
G1 X194.993 Y214.263 E53.08362
G3 X193.947 Y215.402 I-1.318 J-0.161 E53.15716
G3 X193.022 Y215.541 I-0.967 J-3.287 E53.19911
G1 X136.978 Y215.541 E55.70714
G3 X135.641 Y215.241 I-0.003 J-3.114 E55.76889
G3 X135.007 Y214.264 I0.695 J-1.145 E55.82261
G1 X135.013 Y132.967 E59.46074
G3 X135.201 Y132.210 I2.045 J0.106 E59.49581
G1 X135.705 Y131.366 E59.5398
G1 X135.707 Y120.753 E60.01474
G3 X135.968 Y120.113 I1.185 J0.110 E60.04599
M204 S10000
G1 X136.346 Y120.354 F18000
M204 S5000
G1 F3600
G3 X136.531 Y120.175 I0.371 J0.199 E60.05760
G3 X137.399 Y119.914 I0.985 J1.702 E60.09844
G1 X141.407 Y119.907 E60.2778
G1 X141.407 Y117.487 E60.3861
G3 X143.987 Y114.907 I2.594 J0.014 E60.56698
G1 X193.021 Y114.908 E62.7613
G3 X194.314 Y115.294 I0.118 J1.963 E62.82296
G3 X194.544 Y115.770 I-0.658 J0.611 E62.84689
G1 X194.544 Y214.23 E67.25308
G3 X193.831 Y214.968 I-0.866 J-0.123 E67.30189
G3 X193.013 Y215.093 I-0.848 J-2.807 E67.33902
G1 X136.987 Y215.093 E69.84624
G3 X135.686 Y214.706 I-0.121 J-1.973 E69.90826
G3 X135.456 Y214.230 I0.658 J-0.611 E69.93219
G1 X135.461 Y132.983 E73.56808
G3 X135.615 Y132.382 I1.616 J0.094 E73.59598
G1 X136.153 Y131.492 E73.64252
G1 X136.155 Y120.783 E74.12176
G3 X136.314 Y120.404 I0.701 J0.071 E74.14035
M204 S10000
G1 X136.693 Y120.634 F18000
M204 S5000
G1 F3600
G1 X136.75 Y120.569 E74.14422
G3 X137.454 Y120.359 I0.775 J1.313 E74.17734
G1 X141.856 Y120.356 E74.37433
G1 X141.856 Y117.497 E74.50227
G3 X143.996 Y115.356 I2.144 J0.003 E74.65252
G1 X193.011 Y115.356 E76.84599
G3 X193.966 Y115.580 I0.082 J1.798 E76.89042
G3 X194.096 Y115.804 I-0.312 J0.331 E76.90211
G1 X194.096 Y214.196 E81.30526
G3 X193.715 Y214.535 I-0.430 J-0.100 E81.32942
G3 X193.003 Y214.644 I-0.737 J-2.436 E81.36174
G1 X136.997 Y214.644 E83.86807
G3 X136.034 Y214.420 I-0.089 J-1.801 E83.91286
G3 X135.904 Y214.196 I0.289 J-0.317 E83.92455
G1 X135.91 Y133.001 E87.55811
G3 X136.028 Y132.559 I1.140 J0.068 E87.57868
G1 X136.602 Y131.618 E87.62801
G1 X136.604 Y120.813 E88.11155
G1 X136.662 Y120.685 E88.11784
M204 S10000
G1 E85.61784 F4800
G92 E0
G1 X142.349 Y121.052 F18000
G1 E2.5 F4800
M204 S5000
;TYPE:External perimeter
;WIDTH:0.550801
G1 F3600
G1 X142.439 Y120.929 E2.50759
;WIDTH:0.5254
G1 X142.53 Y120.806 E2.51482
;WIDTH:0.499999
G1 X142.53 Y117.646 E2.65623
G1 X142.605 Y117.047 E2.68325
G3 X144.019 Y116.030 I1.402 J0.457 E2.76627
G1 X192.937 Y116.03 E4.9554
G1 X193.421 Y116.108 E4.97734
G1 X193.421 Y116.515 E4.99555
G1 X193.421 Y213.906 E9.3539
G1 X192.99 Y213.97 E9.3734
G1 X191.713 Y213.97 E9.43055
;WIDTH:0.547046
G1 X191.001 Y213.946 E9.46578
G1 X138.998 Y213.946 E12.03709
;WIDTH:0.56728
G2 X138.385 Y213.953 I-0.267 J3.504 E12.06867
;WIDTH:0.53364
G1 X138.067 Y213.97 E12.08399
;WIDTH:0.499999
G1 X137.027 Y213.97 E12.13053
G1 X136.579 Y213.906 E12.15078
G1 X136.584 Y133.043 E15.76948
G1 X136.687 Y132.767 E15.78266
G1 X137.239 Y131.873 E15.82968
G1 X137.276 Y131.75 E15.83543
G1 X137.278 Y121.093 E16.31234
G1 X137.53 Y121.03 E16.32396
G1 X138.285 Y121.03 E16.35775
;WIDTH:0.547046
G2 X142.289 Y121.054 I2.359 J-59.464 E16.55574
M204 S10000
G1 X142.488 Y121.115 F18000
G1 E14.05574 F4800
G92 E0
G1 X191.845 Y122.128 F18000
G1 E2.5 F4800
M204 S5000
;WIDTH:0.499999
G1 F3600
G1 X191.927 Y122.499 E2.517
G1 X191.927 Y212.502 E6.54473
G3 X191.715 Y213.084 I-0.915 J-0.004 E6.57287
;WIDTH:0.505027
G1 X191.372 Y213.347 E6.59243
;WIDTH:0.547046
G1 X191.001 Y213.451 E6.61148
G1 X138.998 Y213.451 E9.18279
;WIDTH:0.56728
G3 X138.579 Y213.319 I-0.079 J-0.481 E9.20602
;WIDTH:0.53364
G1 X138.416 Y213.215 E9.21532
;WIDTH:0.499999
G3 X138.073 Y212.502 I0.601 J-0.728 E9.25157
G1 X138.073 Y131.859 E12.86043
G1 X138.073 Y122.498 E13.27934
G3 X138.285 Y121.917 I0.909 J0.003 E13.30744
;WIDTH:0.504859
G1 X138.626 Y121.653 E13.32695
;WIDTH:0.547046
G1 X138.998 Y121.549 E13.34605
G3 X143.297 Y121.573 I1.654 J88.768 E13.55863
;WIDTH:0.499999
G1 X191.002 Y121.573 E15.69348
G3 X191.812 Y122.078 I-0.014 J0.924 E15.73823
M204 S10000
G1 X192.222 Y122.169 F18000
G1 E13.23823 F4800
G92 E0
G1 X137.67 Y131.859 F18000
G1 E2.5 F4800
M204 S5000
;TYPE:Perimeter
;WIDTH:0.40914
G1 F3600
G1 X137.674 Y131.75 E2.50389
;WIDTH:0.399706
G1 X137.675 Y122.498 E2.82534
;WIDTH:0.439826
G1 X137.696 Y122.182 E2.83761
M204 S10000
G1 X138.266 Y121.42 F18000
M204 S5000
;WIDTH:0.38284
G1 F3600
G1 X137.96 Y121.692 E2.85115
;WIDTH:0.411333
G1 X137.828 Y121.937 E2.86114
;WIDTH:0.439826
G1 X137.696 Y122.182 E2.87192
G1 X137.681 Y121.976 E2.87992
;WIDTH:0.410087
G1 X137.668 Y121.42 E2.89982
;WIDTH:0.38284
G1 X138.206 Y121.42 E2.91761
M204 S10000
G1 E.41761 F4800
G92 E0
G1 X137.588 Y132.224 F18000
G1 E2.5 F4800
M204 S5000
;WIDTH:0.571524
G1 F3600
G1 X137.588 Y133.146 E2.54784
;WIDTH:0.574206
G1 X137.587 Y212.502 E6.68668
;WIDTH:0.607448
G1 X137.629 Y212.781 E6.70233
;WIDTH:0.640689
G1 X137.671 Y213.061 E6.71898
G1 X137.936 Y213.451 E6.7467
G1 X137.097 Y213.451 E6.79602
G1 X137.091 Y213.059 E6.81907
;WIDTH:0.626802
G1 X137.077 Y212.781 E6.83505
;WIDTH:0.600504
G1 X137.064 Y212.502 E6.85035
;WIDTH:0.574206
G1 X137.068 Y133.146 E10.98919
;WIDTH:0.571524
G1 X137.104 Y133.014 E10.99629
G1 X137.557 Y132.275 E11.04127
M204 S10000
G1 E8.54127 F4800
G92 E0
G1 X192.245 Y121.961 F18000
G1 E2.5 F4800
M204 S5000
;WIDTH:0.543919
G1 F3600
G1 X192.171 Y121.785 E2.50938
;WIDTH:0.499999
G2 X191.002 Y121.124 I-1.207 J0.770 E2.57178
G1 X142.711 Y121.124 E4.73285
G1 X142.978 Y120.806 E4.75143
G1 X142.978 Y117.646 E4.89284
G3 X143.405 Y116.680 I1.098 J-0.092 E4.94194
G3 X144.054 Y116.478 I0.640 J0.912 E4.97272
G1 X192.937 Y116.478 E7.16028
G1 X192.973 Y116.515 E7.16259
G1 X192.973 Y121.305 E7.37695
;WIDTH:0.515443
G1 X192.965 Y121.942 E7.40644
;WIDTH:0.544851
G1 X192.95 Y122.22 E7.42014
;WIDTH:0.574259
G1 X192.936 Y122.499 E7.43471
G1 X192.936 Y212.502 E12.12933
;WIDTH:0.598803
G1 X192.924 Y212.889 E12.15047
;WIDTH:0.640211
G1 X192.903 Y213.451 E12.18351
G1 X192.073 Y213.451 E12.23227
G1 X192.342 Y213.032 E12.26152
G1 X192.377 Y212.767 E12.27722
;WIDTH:0.607235
G1 X192.413 Y212.502 E12.29205
;WIDTH:0.574259
G1 X192.413 Y122.499 E16.98667
;WIDTH:0.587838
G2 X192.286 Y122.059 I-0.732 J-0.027 E17.01146
;WIDTH:0.543919
G1 X192.268 Y122.016 E17.01375
M204 S10000
G1 X192.822 Y121.971 F18000
M204 S5000
;TYPE:Solid infill
;WIDTH:0.502318
G1 F3600
G1 X187.666 Y116.815 E17.34175
G1 X188.303 Y116.815 E17.3704
G1 X192.637 Y121.148 E17.64607
G1 X192.637 Y120.51 E17.67477
G1 X188.941 Y116.815 E17.90986
G1 X189.578 Y116.815 E17.93851
G1 X192.637 Y119.873 E18.13308
G1 X192.637 Y119.235 E18.16178
G1 X190.216 Y116.815 E18.31576
G1 X190.854 Y116.815 E18.34446
G1 X192.637 Y118.598 E18.45789
G1 X192.637 Y117.96 E18.48659
G1 X191.491 Y116.815 E18.55946
G1 X192.129 Y116.815 E18.58816
G1 X192.838 Y117.525 E18.63329
M204 S10000
G1 E16.13329 F4800
G92 E0
G1 X191.233 Y121.02 F18000
G1 E2.5 F4800
M204 S5000
G1 F3600
G1 X187.028 Y116.815 E2.7675
G1 X186.391 Y116.815 E2.79615
G1 X190.364 Y120.788 E3.04889
G1 X189.726 Y120.788 E3.07759
G1 X185.753 Y116.815 E3.33033
G1 X185.116 Y116.815 E3.35898
G1 X189.089 Y120.788 E3.61172
G1 X188.451 Y120.788 E3.64042
G1 X184.478 Y116.815 E3.89316
G1 X183.841 Y116.815 E3.92181
G1 X187.813 Y120.788 E4.17452
G1 X187.176 Y120.788 E4.20317
G1 X183.203 Y116.815 E4.45591
G1 X182.565 Y116.815 E4.48461
G1 X186.538 Y120.788 E4.73735
G1 X185.901 Y120.788 E4.766
G1 X181.928 Y116.815 E5.01874
G1 X181.29 Y116.815 E5.04744
G1 X185.263 Y120.788 E5.30018
G1 X184.626 Y120.788 E5.32883
G1 X180.653 Y116.815 E5.58157
G1 X180.015 Y116.815 E5.61027
G1 X183.988 Y120.788 E5.86301
G1 X183.351 Y120.788 E5.89166
G1 X179.378 Y116.815 E6.1444
G1 X178.74 Y116.815 E6.1731
G1 X182.713 Y120.788 E6.42584
G1 X182.076 Y120.788 E6.45449
G1 X178.103 Y116.815 E6.70723
G1 X177.465 Y116.815 E6.73593
G1 X181.438 Y120.788 E6.98867
G1 X180.8 Y120.788 E7.01737
G1 X176.828 Y116.815 E7.27008
G1 X176.19 Y116.815 E7.29878
G1 X180.163 Y120.788 E7.55152
G1 X179.525 Y120.788 E7.58022
G1 X175.552 Y116.815 E7.83296
G1 X174.915 Y116.815 E7.86161
G1 X178.888 Y120.788 E8.11435
G1 X178.25 Y120.788 E8.14305
G1 X174.277 Y116.815 E8.39579
G1 X173.64 Y116.815 E8.42444
G1 X177.613 Y120.788 E8.67718
G1 X176.975 Y120.788 E8.70588
G1 X173.002 Y116.815 E8.95862
G1 X172.365 Y116.815 E8.98727
G1 X176.338 Y120.788 E9.24001
G1 X175.7 Y120.788 E9.26871
G1 X171.727 Y116.815 E9.52145
G1 X171.09 Y116.815 E9.5501
G1 X175.062 Y120.788 E9.80281
G1 X174.425 Y120.788 E9.83146
G1 X170.452 Y116.815 E10.0842
G1 X169.815 Y116.815 E10.11285
G1 X173.787 Y120.788 E10.36556
G1 X173.15 Y120.788 E10.39421
G1 X169.177 Y116.815 E10.64695
G1 X168.539 Y116.815 E10.67565
G1 X172.512 Y120.788 E10.92839
G1 X171.875 Y120.788 E10.95704
G1 X167.902 Y116.815 E11.20978
G1 X167.264 Y116.815 E11.23848
G1 X171.237 Y120.788 E11.49122
G1 X170.6 Y120.788 E11.51987
G1 X166.627 Y116.815 E11.77261
G1 X165.989 Y116.815 E11.80131
G1 X169.962 Y120.788 E12.05405
G1 X169.325 Y120.788 E12.0827
G1 X165.352 Y116.815 E12.33544
G1 X164.714 Y116.815 E12.36414
G1 X168.687 Y120.788 E12.61688
G1 X168.049 Y120.788 E12.64558
G1 X164.077 Y116.815 E12.89829
G1 X163.439 Y116.815 E12.92699
G1 X167.412 Y120.788 E13.17973
G1 X166.774 Y120.788 E13.20843
G1 X162.801 Y116.815 E13.46117
G1 X162.164 Y116.815 E13.48982
G1 X166.137 Y120.788 E13.74256
G1 X165.499 Y120.788 E13.77126
G1 X161.526 Y116.815 E14.024
G1 X160.889 Y116.815 E14.05265
G1 X164.862 Y120.788 E14.30539
G1 X164.224 Y120.788 E14.33409
G1 X160.251 Y116.815 E14.58683
G1 X159.614 Y116.815 E14.61548
G1 X163.587 Y120.788 E14.86822
G1 X162.949 Y120.788 E14.89692
G1 X158.976 Y116.815 E15.14966
G1 X158.339 Y116.815 E15.17831
G1 X162.312 Y120.788 E15.43105
G1 X161.674 Y120.788 E15.45975
G1 X157.701 Y116.815 E15.71249
G1 X157.064 Y116.815 E15.74114
G1 X161.036 Y120.788 E15.99385
G1 X160.399 Y120.788 E16.0225
G1 X156.426 Y116.815 E16.27524
G1 X155.788 Y116.815 E16.30394
G1 X159.761 Y120.788 E16.55668
G1 X159.124 Y120.788 E16.58533
G1 X155.151 Y116.815 E16.83807
G1 X154.513 Y116.815 E16.86677
G1 X158.486 Y120.788 E17.11951
G1 X157.849 Y120.788 E17.14816
G1 X153.876 Y116.815 E17.4009
G1 X153.238 Y116.815 E17.4296
G1 X157.211 Y120.788 E17.68234
G1 X156.574 Y120.788 E17.71099
G1 X152.601 Y116.815 E17.96373
G1 X151.963 Y116.815 E17.99243
G1 X155.936 Y120.788 E18.24517
G1 X155.299 Y120.788 E18.27382
G1 X151.326 Y116.815 E18.52656
G1 X150.688 Y116.815 E18.55526
G1 X154.661 Y120.788 E18.808
G1 X154.023 Y120.788 E18.8367
G1 X150.051 Y116.815 E19.08941
G1 X149.413 Y116.815 E19.11811
G1 X153.386 Y120.788 E19.37085
G1 X152.748 Y120.788 E19.39955
G1 X148.775 Y116.815 E19.65229
G1 X148.138 Y116.815 E19.68094
G1 X152.111 Y120.788 E19.93368
G1 X151.473 Y120.788 E19.96238
G1 X147.5 Y116.815 E20.21512
G1 X146.863 Y116.815 E20.24377
G1 X150.836 Y120.788 E20.49651
G1 X150.198 Y120.788 E20.52521
G1 X146.225 Y116.815 E20.77795
G1 X145.588 Y116.815 E20.8066
G1 X149.561 Y120.788 E21.05934
G1 X148.923 Y120.788 E21.08804
G1 X144.95 Y116.815 E21.34078
G1 X144.313 Y116.815 E21.36943
G1 X148.285 Y120.788 E21.62214
G1 X147.648 Y120.788 E21.65079
G1 X143.745 Y116.885 E21.89908
G2 X143.413 Y117.190 I0.148 J0.495 E21.91990
G1 X147.01 Y120.788 E22.14875
G1 X146.373 Y120.788 E22.1774
G1 X143.315 Y117.73 E22.37193
