; Postprocessed by [ArcWelder](https://github.com/FormerLurker/ArcWelderLib)
; Copyright(C) 2021 - Brad Hochgesang
; Version: 1.2.0, Branch: HEAD, BuildDate: 2021-11-21T20:25:43Z
; resolution=0.05mm
; path_tolerance=5.0%
; max_radius=9999.00mm
; default_xyz_precision=3
; default_e_precision=5
; extrusion_rate_variance_percent=5.0%

; generated by AnycubicSlicer 1.2.2 on 2024-01-03 at 18:28:52 UTC




; 

; external perimeters extrusion width = 0.45mm
; perimeters extrusion width = 0.45mm
; infill extrusion width = 0.45mm
; solid infill extrusion width = 0.45mm
; top infill extrusion width = 0.42mm
; support material extrusion width = 0.45mm
; first layer extrusion width = 0.50mm

;TYPE:Custom
G90 ; use absolute coordinates
M83 ; extruder relative mode
M140 S70 ; set bed temp
M190 S70 ; wait for bed temp
M104 S210 ; set extruder temp
M109 S210 ; wait for extruder temp
G28                                        ; move X/Y/Z to min endstops
G1 Z0.28                                   ; lift nozzle a bit 
G92 E0 
G1 Y3 F2400                                    ; zero the extruded length 
G1 X180  E40 F500                       ; Extrude 25mm of filament in a 5cm line. 
G92 E0                                     ; zero the extruded length again 
G1 E-0.2 F3000                                ; Retract a little 
G1 X181 F4000                              ; Quickly wipe away from the filament line
M117
G21 ; set units to millimeters
G90 ; use absolute coordinates
M82 ; use absolute distances for extrusion
G92 E0
M107
;LAYER_CHANGE
;Z:0.24
;HEIGHT:0.24
; BEFORE_LAYER_CHANGE 0 @ 0.24mm
G1 Z.24 F18000
; AFTER_LAYER_CHANGE 0 @ 0.24mm
G1 E-2.5 F4800
G92 E0
G1 X133.956 Y161.884 F18000
G1 E2.5 F4800
M204 S5000
;TYPE:Skirt/Brim
;WIDTH:0.5
G1 F3600
G1 X134.274 Y161.695 E2.51655
G1 X134.63 Y161.548 E2.53379
G1 X135.044 Y161.449 E2.55284
G1 X158.915 Y161.449 E3.62109
G3 X160.840 Y162.810 I-0.468 J2.703 E3.73007
G1 X161.229 Y163.702 E3.77362
G1 X161.624 Y162.801 E3.81765
G3 X163.604 Y161.443 I2.423 J1.410 E3.92885
G1 X190.854 Y161.442 E5.14832
G3 X193.142 Y163.770 I-0.386 J2.668 E5.30530
G1 X193.137 Y165.271 E5.37247
G3 X190.855 Y167.557 I-2.666 J-0.379 E5.52756
G1 X163.698 Y167.567 E6.74286
G3 X161.678 Y166.295 I0.303 J-2.720 E6.85336
G1 X161.224 Y165.312 E6.90182
G1 X160.835 Y166.199 E6.94516
G3 X158.915 Y167.551 I-2.427 J-1.407 E7.05368
G1 X135.198 Y167.567 E8.11504
G3 X132.829 Y165.339 I0.294 J-2.686 E8.27128
G1 X132.822 Y163.731 E8.34324
G3 X133.913 Y161.925 I2.665 J0.377 E8.44024
M204 S10000
G1 X134.21 Y162.255 F18000
M204 S5000
G1 F3600
G3 X135.072 Y161.898 I1.227 J1.742 E8.48229
G1 X158.887 Y161.898 E9.54804
G3 X160.698 Y163.840 I-0.419 J2.207 E9.67519
G1 X160.689 Y165.249 E9.73825
G3 X158.887 Y167.102 I-2.230 J-0.366 E9.86143
G1 X135.219 Y167.118 E10.9206
G3 X133.277 Y165.308 I0.271 J-2.237 E11.04770
G1 X133.266 Y163.798 E11.11528
G3 X134.167 Y162.296 I2.126 J0.254 E11.19582
M204 S10000
G1 X134.468 Y162.623 F18000
M204 S5000
G1 F3600
G3 X135.150 Y162.340 I0.965 J1.363 E11.22910
G1 X158.809 Y162.34 E12.28787
G3 X160.249 Y163.861 I-0.341 J1.765 E12.38796
G1 X160.245 Y165.18 E12.44699
G3 X158.809 Y166.660 I-1.762 J-0.273 E12.54524
G1 X135.241 Y166.67 E13.59993
G3 X133.720 Y165.229 I0.247 J-1.784 E13.70008
G1 X133.71 Y163.862 E13.76126
G3 X134.424 Y162.664 I1.678 J0.188 E13.82541
M204 S10000
G1 X134.729 Y162.987 F18000
M204 S5000
G1 F3600
G3 X135.222 Y162.783 I0.688 J0.965 E13.84946
G1 X158.737 Y162.783 E14.90178
G3 X159.801 Y163.884 I-0.265 J1.320 E14.97464
G1 X159.801 Y165.116 E15.02977
G3 X158.737 Y166.217 I-1.317 J-0.208 E15.10265
G1 X135.263 Y166.221 E16.15314
G3 X134.163 Y165.157 I0.223 J-1.331 E16.22600
G1 X134.158 Y163.883 E16.28301
G3 X134.687 Y163.029 I1.232 J0.172 E16.32913
M204 S10000
G1 X135 Y163.346 F18000
M204 S5000
G1 F3600
G1 X135.285 Y163.227 E16.34295
G1 X158.674 Y163.227 E17.38963
G3 X159.344 Y163.863 I-0.203 J0.885 E17.43276
G1 X159.352 Y165.094 E17.48785
G3 X158.674 Y165.773 I-0.877 J-0.197 E17.53289
G1 X135.285 Y165.773 E18.57957
G3 X134.607 Y165.094 I0.194 J-0.871 E18.62461
G1 X134.615 Y163.863 E18.6797
G3 X134.957 Y163.388 I0.801 J0.216 E18.70632
M204 S10000
G1 X135.27 Y163.71 F18000
M204 S5000
G1 F3600
G1 X135.352 Y163.676 E18.71029
G1 X158.607 Y163.676 E19.75098
G3 X158.904 Y163.973 I-0.124 J0.421 E19.77038
G1 X158.904 Y165.027 E19.81755
G3 X158.607 Y165.324 I-0.425 J-0.128 E19.83695
G1 X135.352 Y165.324 E20.87764
G3 X135.055 Y165.027 I0.124 J-0.421 E20.89704
G1 X135.055 Y163.973 E20.94421
G3 X135.227 Y163.752 I0.350 J0.095 E20.95695
M204 S10000
G1 E18.45695 F4800
G92 E0
G1 X161.771 Y163.751 F18000
G1 E2.5 F4800
M204 S5000
G1 F3600
G3 X163.630 Y161.891 I2.220 J0.360 E2.62576
G1 X190.788 Y161.886 E3.84111
G3 X192.693 Y163.794 I-0.316 J2.220 E3.97065
G1 X192.694 Y165.203 E4.0337
G3 X190.830 Y167.109 I-2.228 J-0.314 E4.16150
G1 X163.719 Y167.118 E5.37475
G3 X161.771 Y165.250 I0.264 J-2.225 E5.50444
G1 X161.771 Y163.811 E5.56884
M204 S10000
G1 X162.214 Y163.82 F18000
M204 S5000
G1 F3600
G3 X163.699 Y162.335 I1.772 J0.287 E5.66928
G1 X190.762 Y162.335 E6.88038
G3 X192.245 Y163.820 I-0.290 J1.772 E6.98073
G1 X192.249 Y165.139 E7.03976
G3 X190.760 Y166.665 I-1.774 J-0.241 E7.14204
G1 X163.741 Y166.67 E8.35117
G3 X162.214 Y165.180 I0.243 J-1.776 E8.45352
G1 X162.214 Y163.88 E8.5117
M204 S10000
G1 X162.658 Y163.884 F18000
M204 S5000
G1 F3600
G3 X163.763 Y162.779 I1.306 J0.201 E8.58641
G1 X190.737 Y162.783 E9.79353
G3 X191.801 Y163.884 I-0.265 J1.320 E9.86641
G1 X191.801 Y165.116 E9.92154
G3 X190.696 Y166.221 I-1.319 J-0.214 E9.99623
G1 X163.763 Y166.221 E11.20151
G3 X162.658 Y165.116 I0.218 J-1.323 E11.27621
G1 X162.658 Y163.944 E11.32866
M204 S10000
G1 X163.107 Y163.944 F18000
M204 S5000
G1 F3600
G3 X163.785 Y163.227 I0.852 J0.127 E11.37543
G1 X190.674 Y163.227 E12.57874
G3 X191.344 Y163.863 I-0.203 J0.885 E12.62187
G1 X191.352 Y165.094 E12.67696
G3 X190.674 Y165.773 I-0.877 J-0.197 E12.72200
G1 X163.785 Y165.773 E13.92531
G3 X163.115 Y165.137 I0.203 J-0.885 E13.96844
G1 X163.107 Y164.004 E14.01914
M204 S10000
G1 X163.555 Y164.004 F18000
M204 S5000
G1 F3600
G3 X163.852 Y163.676 I0.418 J0.080 E14.03985
G1 X190.607 Y163.676 E15.23716
G3 X190.904 Y163.973 I-0.124 J0.421 E15.25656
G1 X190.904 Y165.027 E15.30373
G3 X190.607 Y165.324 I-0.425 J-0.128 E15.32313
G1 X163.852 Y165.324 E16.52044
G3 X163.555 Y165.027 I0.124 J-0.421 E16.53984
G1 X163.555 Y164.064 E16.58294
M204 S10000
G1 E14.08294 F4800
G92 E0
G1 X153.418 Y160.65 F18000
G1 E2.5 F4800
M204 S5000
;TYPE:Support material
G1 F3600
G1 X141.697 Y160.65 E3.02453
G1 X141.697 Y159.139 E3.09215
G1 X153.418 Y159.139 E3.61668
G1 X153.418 Y160.583 E3.6813
M204 S10000
G1 X152.542 Y160.448 F18000
M204 S5000
G1 F3600
G1 X152.542 Y159.543 E3.7218
G1 X152.043 Y159.543 E3.74413
G1 X152.043 Y160.246 E3.77559
G1 X151.545 Y160.246 E3.79788
G1 X151.545 Y159.543 E3.82934
G1 X151.047 Y159.543 E3.85163
G1 X151.047 Y160.246 E3.88309
G1 X150.548 Y160.246 E3.90542
G1 X150.548 Y159.543 E3.93688
G1 X150.05 Y159.543 E3.95917
G1 X150.05 Y160.246 E3.99063
G1 X149.552 Y160.246 E4.01292
G1 X149.552 Y159.543 E4.04438
G1 X149.054 Y159.543 E4.06667
G1 X149.054 Y160.246 E4.09813
G1 X148.555 Y160.246 E4.12046
G1 X148.555 Y159.543 E4.15192
G1 X148.057 Y159.543 E4.17421
G1 X148.057 Y160.246 E4.20567
G1 X147.559 Y160.246 E4.22796
G1 X147.559 Y159.543 E4.25942
G1 X147.06 Y159.543 E4.28175
G1 X147.06 Y160.246 E4.31321
G1 X146.562 Y160.246 E4.3355
G1 X146.562 Y159.543 E4.36696
G1 X146.064 Y159.543 E4.38925
G1 X146.064 Y160.246 E4.42071
G1 X145.565 Y160.246 E4.44304
G1 X145.565 Y159.543 E4.4745
G1 X145.067 Y159.543 E4.49679
G1 X145.067 Y160.246 E4.52825
G1 X144.569 Y160.246 E4.55054
G1 X144.569 Y159.543 E4.582
G1 X144.07 Y159.543 E4.60433
G1 X144.07 Y160.246 E4.63579
G1 X143.572 Y160.246 E4.65808
G1 X143.572 Y159.543 E4.68954
G1 X143.074 Y159.543 E4.71183
G1 X143.074 Y160.246 E4.74329
G1 X142.575 Y160.246 E4.76562
G1 X142.575 Y159.341 E4.80612
M204 S10000
G1 E2.30612 F4800
G92 E0
G1 X153.418 Y170.861 F18000
G1 E2.5 F4800
M204 S5000
G1 F3600
G1 X141.697 Y170.861 E3.02453
G1 X141.697 Y168.35 E3.1369
G1 X153.418 Y168.35 E3.66143
G1 X153.418 Y170.793 E3.77076
M204 S10000
G1 X152.542 Y170.659 F18000
M204 S5000
G1 F3600
G1 X152.542 Y168.754 E3.85601
G1 X152.043 Y168.754 E3.87834
G1 X152.043 Y170.457 E3.95455
G1 X151.545 Y170.457 E3.97684
G1 X151.545 Y168.754 E4.05305
G1 X151.047 Y168.754 E4.07534
G1 X151.047 Y170.457 E4.15155
G1 X150.548 Y170.457 E4.17388
G1 X150.548 Y168.754 E4.25009
G1 X150.05 Y168.754 E4.27238
G1 X150.05 Y170.457 E4.34859
G1 X149.552 Y170.457 E4.37088
G1 X149.552 Y168.754 E4.44709
G1 X149.054 Y168.754 E4.46938
G1 X149.054 Y170.457 E4.54559
G1 X148.555 Y170.457 E4.56792
G1 X148.555 Y168.754 E4.64413
G1 X148.057 Y168.754 E4.66642
G1 X148.057 Y170.457 E4.74263
G1 X147.559 Y170.457 E4.76492
G1 X147.559 Y168.754 E4.84113
G1 X147.06 Y168.754 E4.86346
G1 X147.06 Y170.457 E4.93967
G1 X146.562 Y170.457 E4.96196
G1 X146.562 Y168.754 E5.03817
G1 X146.064 Y168.754 E5.06046
G1 X146.064 Y170.457 E5.13667
G1 X145.565 Y170.457 E5.159
G1 X145.565 Y168.754 E5.23521
G1 X145.067 Y168.754 E5.2575
G1 X145.067 Y170.457 E5.33371
G1 X144.569 Y170.457 E5.356
G1 X144.569 Y168.754 E5.43221
G1 X144.07 Y168.754 E5.45454
G1 X144.07 Y170.457 E5.53075
G1 X143.572 Y170.457 E5.55304
G1 X143.572 Y168.754 E5.62925
G1 X143.074 Y168.754 E5.65154
G1 X143.074 Y170.457 E5.72775
G1 X142.575 Y170.457 E5.75008
G1 X142.575 Y168.552 E5.83533
M204 S10000
G1 E3.33533 F4800
G92 E0
G1 X182.489 Y170.861 F18000
G1 E2.5 F4800
M204 S5000
G1 F3600
G1 X170.768 Y170.861 E3.02453
G1 X170.768 Y168.35 E3.1369
G1 X182.489 Y168.35 E3.66143
G1 X182.489 Y170.793 E3.77076
M204 S10000
G1 X181.943 Y170.659 F18000
M204 S5000
G1 F3600
G1 X181.943 Y168.754 E3.85601
G1 X181.445 Y168.754 E3.8783
G1 X181.445 Y170.457 E3.95451
G1 X180.946 Y170.457 E3.97684
G1 X180.946 Y168.754 E4.05305
G1 X180.448 Y168.754 E4.07534
G1 X180.448 Y170.457 E4.15155
G1 X179.95 Y170.457 E4.17384
G1 X179.95 Y168.754 E4.25005
G1 X179.452 Y168.754 E4.27234
G1 X179.452 Y170.457 E4.34855
G1 X178.953 Y170.457 E4.37088
G1 X178.953 Y168.754 E4.44709
G1 X178.455 Y168.754 E4.46938
G1 X178.455 Y170.457 E4.54559
G1 X177.957 Y170.457 E4.56788
G1 X177.957 Y168.754 E4.64409
G1 X177.458 Y168.754 E4.66642
G1 X177.458 Y170.457 E4.74263
G1 X176.96 Y170.457 E4.76492
G1 X176.96 Y168.754 E4.84113
G1 X176.462 Y168.754 E4.86342
G1 X176.462 Y170.457 E4.93963
G1 X175.963 Y170.457 E4.96196
G1 X175.963 Y168.754 E5.03817
G1 X175.465 Y168.754 E5.06046
G1 X175.465 Y170.457 E5.13667
G1 X174.967 Y170.457 E5.15896
G1 X174.967 Y168.754 E5.23517
G1 X174.468 Y168.754 E5.2575
G1 X174.468 Y170.457 E5.33371
G1 X173.97 Y170.457 E5.356
G1 X173.97 Y168.754 E5.43221
G1 X173.472 Y168.754 E5.4545
G1 X173.472 Y170.457 E5.53071
G1 X172.973 Y170.457 E5.55304
G1 X172.973 Y168.754 E5.62925
G1 X172.475 Y168.754 E5.65154
G1 X172.475 Y170.457 E5.72775
G1 X171.977 Y170.457 E5.75004
G1 X171.977 Y168.754 E5.82625
G1 X171.478 Y168.754 E5.84858
G1 X171.478 Y170.659 E5.93383
M204 S10000
G1 E3.43383 F4800
G92 E0
G1 X182.489 Y160.65 F18000
G1 E2.5 F4800
M204 S5000
G1 F3600
G1 X170.768 Y160.65 E3.02453
G1 X170.768 Y159.139 E3.09215
G1 X182.489 Y159.139 E3.61668
G1 X182.489 Y160.583 E3.6813
M204 S10000
G1 X181.943 Y160.448 F18000
M204 S5000
G1 F3600
G1 X181.943 Y159.543 E3.7218
G1 X181.445 Y159.543 E3.74409
G1 X181.445 Y160.246 E3.77555
G1 X180.946 Y160.246 E3.79788
G1 X180.946 Y159.543 E3.82934
G1 X180.448 Y159.543 E3.85163
G1 X180.448 Y160.246 E3.88309
G1 X179.95 Y160.246 E3.90538
G1 X179.95 Y159.543 E3.93684
G1 X179.452 Y159.543 E3.95913
G1 X179.452 Y160.246 E3.99059
G1 X178.953 Y160.246 E4.01292
G1 X178.953 Y159.543 E4.04438
G1 X178.455 Y159.543 E4.06667
G1 X178.455 Y160.246 E4.09813
G1 X177.957 Y160.246 E4.12042
G1 X177.957 Y159.543 E4.15188
G1 X177.458 Y159.543 E4.17421
G1 X177.458 Y160.246 E4.20567
G1 X176.96 Y160.246 E4.22796
G1 X176.96 Y159.543 E4.25942
G1 X176.462 Y159.543 E4.28171
G1 X176.462 Y160.246 E4.31317
G1 X175.963 Y160.246 E4.3355
G1 X175.963 Y159.543 E4.36696
G1 X175.465 Y159.543 E4.38925
G1 X175.465 Y160.246 E4.42071
G1 X174.967 Y160.246 E4.443
G1 X174.967 Y159.543 E4.47446
G1 X174.468 Y159.543 E4.49679
G1 X174.468 Y160.246 E4.52825
G1 X173.97 Y160.246 E4.55054
G1 X173.97 Y159.543 E4.582
G1 X173.472 Y159.543 E4.60429
G1 X173.472 Y160.246 E4.63575
G1 X172.973 Y160.246 E4.65808
G1 X172.973 Y159.543 E4.68954
G1 X172.475 Y159.543 E4.71183
G1 X172.475 Y160.246 E4.74329
G1 X171.977 Y160.246 E4.76558
G1 X171.977 Y159.543 E4.79704
G1 X171.478 Y159.543 E4.81937
G1 X171.478 Y160.448 E4.85987
M204 S10000
G1 E2.35987 F4800
G92 E0
G1 X192.879 Y161.639 F18000
G1 E2.5 F4800
M204 S5000
G1 F3600
G1 X192.753 Y161.639 E2.50564
G1 X192.141 Y161.067 E2.54313
G1 X191.59 Y160.926 E2.56858
G1 X192.879 Y159.636 E2.65019
G1 X192.879 Y161.572 E2.73683
M204 S10000
G1 X192.408 Y161.04 F18000
M204 S5000
G1 F3600
G1 X192.408 Y160.393 E2.76578
M204 S10000
G1 E.26578 F4800
G92 E0
G1 X193.292 Y162.7 F18000
G1 E2.5 F4800
M204 S5000
;TYPE:Support material interface
;WIDTH:0.45
G1 F3600
G1 X193.292 Y162.093 E2.52414
G1 X193.699 Y162.093 E2.54032
G1 X193.699 Y164.094 E2.61988
M204 S10000
G1 E.11988 F4800
G92 E0
G1 X192.071 Y167.657 F18000
G1 E2.5 F4800
M204 S5000
G1 F3600
G1 X192.071 Y167.907 E2.50994
G1 X192.478 Y167.907 E2.52612
G1 X192.478 Y167.6 E2.53833
G1 X192.885 Y167.165 E2.56202
G1 X192.885 Y167.907 E2.59152
G1 X193.292 Y167.907 E2.6077
G1 X193.292 Y166.729 E2.65454
G1 X193.47 Y166.539 E2.66489
G1 X193.699 Y165.645 E2.70158
G1 X193.699 Y167.907 E2.79152
G1 X194.106 Y167.907 E2.8077
G1 X194.106 Y162.093 E3.03888
G1 X194.513 Y162.093 E3.05506
G1 X194.513 Y167.907 E3.28624
G1 X194.92 Y167.907 E3.30242
G1 X194.92 Y162.093 E3.5336
G1 X195.327 Y162.093 E3.54978
G1 X195.327 Y167.907 E3.78096
G1 X195.734 Y167.907 E3.79714
G1 X195.734 Y162.093 E4.02832
G1 X196.141 Y162.093 E4.0445
G1 X196.141 Y167.907 E4.27568
G1 X196.549 Y167.907 E4.2919
G1 X196.549 Y162.093 E4.52308
G1 X196.956 Y162.093 E4.53926
G1 X196.956 Y168.09 E4.77771
M204 S10000
G1 E2.27771 F4800
G92 E0
G1 X190.267 Y164.5 F18000
G1 E2.5 F4800
M204 S5000
;TYPE:External perimeter
;WIDTH:0.425751
G1 F3600
G1 X190.267 Y164.687 E2.50698
G1 X164.192 Y164.687 E3.48069
G1 X164.192 Y164.313 E3.49466
G1 X190.267 Y164.313 E4.46837
G1 X190.267 Y164.44 E4.47311
M204 S10000
G1 X190.173 Y164.662 F18000
G1 E1.97311 F4800
G92 E0
G1 X158.267 Y164.5 F18000
G1 E2.5 F4800
M204 S5000
G1 F3600
G1 X158.267 Y164.687 E2.50698
G1 X135.692 Y164.687 E3.34999
G1 X135.692 Y164.313 E3.36396
G1 X158.267 Y164.313 E4.20697
G1 X158.267 Y164.44 E4.21171
M204 S10000
G1 X158.173 Y164.662 F18000
;LAYER_CHANGE
;Z:0.44
;HEIGHT:0.2
; BEFORE_LAYER_CHANGE 1 @ 0.44mm
G1 Z.44 F18000
; AFTER_LAYER_CHANGE 1 @ 0.44mm
M104 S235 ; set temperature
M140 S80 ; set bed temperature
G1 E1.71171 F4800
G92 E0
G1 X190.269 Y164.5 F18000
G1 E2.5 F4800
M204 S5000
;WIDTH:0.42146
G1 F1500
G1 X190.269 Y164.689 E2.50595
G1 X163.78 Y164.689 E3.33971
M204 S10000
;TYPE:Overhang perimeter
;WIDTH:0.421459
G1 F4800
G1 X163.44 Y164.725 E3.35047
;WIDTH:0.419971
G2 X162.773 Y165.178 I0.485 J1.431 E3.37596
;WIDTH:0.429972
G3 X161.806 Y165.486 I-0.955 J-1.327 E3.40903
;WIDTH:0.427298
G1 X160.754 Y165.462 E3.44266
;WIDTH:0.420711
G1 X160.274 Y165.287 E3.45871
;WIDTH:0.41507
G3 X160.364 Y164.943 I0.084 J-0.162 E3.47335
;WIDTH:0.420732
G1 X160.802 Y165.085 E3.48781
;WIDTH:0.428388
G2 X162.047 Y165.086 I0.629 J-8.422 E3.52773
;WIDTH:0.420003
G2 X162.912 Y164.570 I-0.350 J-1.570 E3.55972
;WIDTH:0.419434
G1 X163.224 Y164.404 E3.57078
;WIDTH:0.421459
G3 X163.780 Y164.311 I0.514 J1.361 E3.58857
M204 S5000
;TYPE:External perimeter
;WIDTH:0.42146
G1 F1500
G1 X190.269 Y164.311 E4.42233
G1 X190.269 Y164.44 E4.42639
M204 S10000
G1 X190.174 Y164.664 F18000
G1 E1.92639 F4800
G92 E0
G1 X158.269 Y164.5 F18000
G1 E2.5 F4800
M204 S5000
G1 F1500
G1 X158.269 Y164.689 E2.50595
G1 X135.69 Y164.689 E3.21664
G1 X135.69 Y164.311 E3.22854
G1 X158.269 Y164.311 E3.93923
G1 X158.269 Y164.44 E3.94329
M204 S10000
G1 X158.174 Y164.664 F18000
M106 S255
;LAYER_CHANGE
;Z:0.48
;HEIGHT:0.04
